_includes/icons/ios-engineering.svg

<svg fill="#666" height="50" viewBox="0 0 50 50" width="50" xmlns="http://www.w3.org/2000/svg"><path d="m22.205078 2a1.0001 1.0001 0 0 0 -.986328.8398438l-.798828 4.8925781c-1.555427.4131865-3.019772 1.0258753-4.376953 1.8144531l-4.046875-2.8925781a1.0001 1.0001 0 0 0 -1.289063.1074219l-3.8886716 3.8886722a1.0001 1.0001 0 0 0 -.1132813 1.279297l2.8574219 4.082031c-.7949512 1.362103-1.4120068 2.833152-1.828125 4.394531l-4.8984375.816406a1.0001 1.0001 0 0 0 -.8359375.986328v5.5a1.0001 1.0001 0 0 0 .8261719.984375l4.9003906.869141c.4131083 1.561136 1.0263439 3.031618 1.8183594 4.394531l-2.8925781 4.042969a1.0001 1.0001 0 0 0 .1074218 1.289062l3.8886724 3.888672a1.0001 1.0001 0 0 0 1.279296.113282l4.082032-2.855469c1.36199.796691 2.831796 1.413085 4.392578 1.828125l.818359 4.902344a1.0001 1.0001 0 0 0 .986328.835937h5.5a1.0001 1.0001 0 0 0 .984375-.826172l.869141-4.90039c1.57784-.416888 3.062631-1.039393 4.4375-1.84375l4.074219 2.857421a1.0001 1.0001 0 0 0 1.28125-.111328l3.888672-3.888672a1.0001 1.0001 0 0 0 .103515-1.291015l-2.896484-4.025391c.798319-1.368944 1.41793-2.84838 1.832031-4.419922l4.892578-.859375a1.0001 1.0001 0 0 0 .826172-.984375v-5.5a1.0001 1.0001 0 0 0 -.837891-.986328l-4.892578-.800781c-.416936-1.569959-1.037558-3.048212-1.83789-4.416016l2.857421-4.070312a1.0001 1.0001 0 0 0 -.111328-1.28125l-3.888672-3.888672a1.0001 1.0001 0 0 0 -1.291015-.1054688l-4.027344 2.8945313c-1.370042-.7989098-2.849912-1.4172718-4.421875-1.8320313l-.857422-4.8945312a1.0001 1.0001 0 0 0 -.986328-.828125zm.851563 2h3.808593l.81836 4.6601562a1.0001 1.0001 0 0 0 .767578.8046876c1.828245.4051276 3.533197 1.1268512 5.068359 2.1035152a1.0001 1.0001 0 0 0 1.121094-.033203l3.835937-2.7558591 2.69336 2.6953121-2.722656 3.876953a1.0001 1.0001 0 0 0 -.023438 1.113282c.977236 1.531756 1.700411 3.238074 2.107422 5.064453a1.0001 1.0001 0 0 0 .814453.769531l4.654297.759766v3.810547l-4.660156.818359a1.0001 1.0001 0 0 0 -.802735.767578c-.404103 1.826923-1.126021 3.533413-2.101562 5.066406a1.0001 1.0001 0 0 0 .03125 1.121094l2.759765 3.833984-2.693359 2.69336-3.882812-2.722656a1.0001 1.0001 0 0 0 -1.111329-.023438c-1.536684.980201-3.242524 1.702227-5.074218 2.109375a1.0001 1.0001 0 0 0 -.767578.800781l-.828125 4.667969h-3.814453l-.777344-4.666015a1.0001 1.0001 0 0 0 -.769532-.810547c-1.818312-.406159-3.512385-1.123482-5.039062-2.097657a1.0001 1.0001 0 0 0 -1.111328.023438l-3.888672 2.71875-2.6953125-2.695313 2.7519535-3.849609a1.0001 1.0001 0 0 0 .033203-1.117188c-.969514-1.530122-1.6876233-3.224113-2.0917971-5.041015a1.0001 1.0001 0 0 0 -.8007813-.767578l-4.6660156-.828125v-3.814453l4.6621094-.775391a1.0001 1.0001 0 0 0 .8105468-.769531c.407031-1.818009 1.1274208-3.514032 2.0996098-5.042969a1.0001 1.0001 0 0 0 -.025391-1.109375l-2.7207031-3.888672 2.6972661-2.6972655 3.853515 2.7539065a1.0001 1.0001 0 0 0 1.115235.03125c1.526295-.966655 3.221351-1.683779 5.035156-2.0878909a1.0001 1.0001 0 0 0 .769531-.8144531zm1.943359 9c-6.615686 0-12 5.385313-12 11.998047 0 6.614555 5.384314 12.001953 12 12.001953s12-5.387398 12-12.001953c0-6.612734-5.384314-11.998047-12-11.998047zm0 2c5.534314 0 10 4.46678 10 9.998047 0 5.533445-4.465686 10.001953-10 10.001953s-10-4.468508-10-10.001953c0-5.531267 4.465686-9.998047 10-9.998047zm0 4c-3.301864 0-6 2.698136-6 6s2.698136 6 6 6 6-2.698136 6-6-2.698136-6-6-6zm0 2c2.220984 0 4 1.779016 4 4s-1.779016 4-4 4-4-1.779016-4-4 1.779016-4 4-4z"/></svg>

<svg xmlns="http://www.w3.org/2000/svg" viewBox="0 0 50 50" width="50" height="50" fill="#666"><path style="line-height:normal;text-indent:0;text-align:start;text-decoration-line:none;text-decoration-style:solid;text-decoration-color:#000;text-transform:none;block-progression:tb;isolation:auto;mix-blend-mode:normal" d="M 22.205078 2 A 1.0001 1.0001 0 0 0 21.21875 2.8398438 L 20.419922 7.7324219 C 18.864495 8.1456084 17.40015 8.7582972 16.042969 9.546875 L 11.996094 6.6542969 A 1.0001 1.0001 0 0 0 10.707031 6.7617188 L 6.8183594 10.650391 A 1.0001 1.0001 0 0 0 6.7050781 11.929688 L 9.5625 16.011719 C 8.7675488 17.373822 8.1504932 18.844871 7.734375 20.40625 L 2.8359375 21.222656 A 1.0001 1.0001 0 0 0 2 22.208984 L 2 27.708984 A 1.0001 1.0001 0 0 0 2.8261719 28.693359 L 7.7265625 29.5625 C 8.1396708 31.123636 8.7529064 32.594118 9.5449219 33.957031 L 6.6523438 38 A 1.0001 1.0001 0 0 0 6.7597656 39.289062 L 10.648438 43.177734 A 1.0001 1.0001 0 0 0 11.927734 43.291016 L 16.009766 40.435547 C 17.371756 41.232238 18.841562 41.848632 20.402344 42.263672 L 21.220703 47.166016 A 1.0001 1.0001 0 0 0 22.207031 48.001953 L 27.707031 48.001953 A 1.0001 1.0001 0 0 0 28.691406 47.175781 L 29.560547 42.275391 C 31.138387 41.858503 32.623178 41.235998 33.998047 40.431641 L 38.072266 43.289062 A 1.0001 1.0001 0 0 0 39.353516 43.177734 L 43.242188 39.289062 A 1.0001 1.0001 0 0 0 43.345703 37.998047 L 40.449219 33.972656 C 41.247538 32.603712 41.867149 31.124276 42.28125 29.552734 L 47.173828 28.693359 A 1.0001 1.0001 0 0 0 48 27.708984 L 48 22.208984 A 1.0001 1.0001 0 0 0 47.162109 21.222656 L 42.269531 20.421875 C 41.852595 18.851916 41.231973 17.373663 40.431641 16.005859 L 43.289062 11.935547 A 1.0001 1.0001 0 0 0 43.177734 10.654297 L 39.289062 6.765625 A 1.0001 1.0001 0 0 0 37.998047 6.6601562 L 33.970703 9.5546875 C 32.600661 8.7557777 31.120791 8.1374157 29.548828 7.7226562 L 28.691406 2.828125 A 1.0001 1.0001 0 0 0 27.705078 2 L 22.205078 2 z M 23.056641 4 L 26.865234 4 L 27.683594 8.6601562 A 1.0001 1.0001 0 0 0 28.451172 9.4648438 C 30.279417 9.8699714 31.984369 10.591695 33.519531 11.568359 A 1.0001 1.0001 0 0 0 34.640625 11.535156 L 38.476562 8.7792969 L 41.169922 11.474609 L 38.447266 15.351562 A 1.0001 1.0001 0 0 0 38.423828 16.464844 C 39.401064 17.9966 40.124239 19.702918 40.53125 21.529297 A 1.0001 1.0001 0 0 0 41.345703 22.298828 L 46 23.058594 L 46 26.869141 L 41.339844 27.6875 A 1.0001 1.0001 0 0 0 40.537109 28.455078 C 40.133006 30.282001 39.411088 31.988491 38.435547 33.521484 A 1.0001 1.0001 0 0 0 38.466797 34.642578 L 41.226562 38.476562 L 38.533203 41.169922 L 34.650391 38.447266 A 1.0001 1.0001 0 0 0 33.539062 38.423828 C 32.002378 39.404029 30.296538 40.126055 28.464844 40.533203 A 1.0001 1.0001 0 0 0 27.697266 41.333984 L 26.869141 46.001953 L 23.054688 46.001953 L 22.277344 41.335938 A 1.0001 1.0001 0 0 0 21.507812 40.525391 C 19.6895 40.119232 17.995427 39.401909 16.46875 38.427734 A 1.0001 1.0001 0 0 0 15.357422 38.451172 L 11.46875 41.169922 L 8.7734375 38.474609 L 11.525391 34.625 A 1.0001 1.0001 0 0 0 11.558594 33.507812 C 10.58908 31.97769 9.8709707 30.283699 9.4667969 28.466797 A 1.0001 1.0001 0 0 0 8.6660156 27.699219 L 4 26.871094 L 4 23.056641 L 8.6621094 22.28125 A 1.0001 1.0001 0 0 0 9.4726562 21.511719 C 9.8796872 19.69371 10.600077 17.997687 11.572266 16.46875 A 1.0001 1.0001 0 0 0 11.546875 15.359375 L 8.8261719 11.470703 L 11.523438 8.7734375 L 15.376953 11.527344 A 1.0001 1.0001 0 0 0 16.492188 11.558594 C 18.018483 10.591939 19.713539 9.874815 21.527344 9.4707031 A 1.0001 1.0001 0 0 0 22.296875 8.65625 L 23.056641 4 z M 25 13 C 18.384314 13 13 18.385313 13 24.998047 C 13 31.612602 18.384314 37 25 37 C 31.615686 37 37 31.612602 37 24.998047 C 37 18.385313 31.615686 13 25 13 z M 25 15 C 30.534314 15 35 19.46678 35 24.998047 C 35 30.531492 30.534314 35 25 35 C 19.465686 35 15 30.531492 15 24.998047 C 15 19.46678 19.465686 15 25 15 z M 25 19 C 21.698136 19 19 21.698136 19 25 C 19 28.301864 21.698136 31 25 31 C 28.301864 31 31 28.301864 31 25 C 31 21.698136 28.301864 19 25 19 z M 25 21 C 27.220984 21 29 22.779016 29 25 C 29 27.220984 27.220984 29 25 29 C 22.779016 29 21 27.220984 21 25 C 21 22.779016 22.779016 21 25 21 z"/></svg>
